material/.icons/material/phone-paused.svg

<svg xmlns="http://www.w3.org/2000/svg" viewBox="0 0 24 24"><path d="M19 10h2V3h-2m1 12.5c-1.25 0-2.45-.2-3.57-.57-.35-.11-.74-.03-1.02.25l-2.2 2.2a15.097 15.097 0 01-6.59-6.59l2.2-2.2c.28-.28.36-.67.25-1.02A11.36 11.36 0 018.5 4a1 1 0 00-1-1H4a1 1 0 00-1 1 17 17 0 0017 17 1 1 0 001-1v-3.5a1 1 0 00-1-1M17 3h-2v7h2V3z"/></svg>

<?xml version="1.0" encoding="UTF-8"?><!DOCTYPE svg PUBLIC "-//W3C//DTD SVG 1.1//EN" "http://www.w3.org/Graphics/SVG/1.1/DTD/svg11.dtd"><svg xmlns="http://www.w3.org/2000/svg" xmlns:xlink="http://www.w3.org/1999/xlink" version="1.1" id="mdi-phone-paused" width="24" height="24" viewBox="0 0 24 24"><path d="M19,10H21V3H19M20,15.5C18.75,15.5 17.55,15.3 16.43,14.93C16.08,14.82 15.69,14.9 15.41,15.18L13.21,17.38C10.38,15.94 8.06,13.62 6.62,10.79L8.82,8.59C9.1,8.31 9.18,7.92 9.07,7.57C8.7,6.45 8.5,5.25 8.5,4A1,1 0 0,0 7.5,3H4A1,1 0 0,0 3,4A17,17 0 0,0 20,21A1,1 0 0,0 21,20V16.5A1,1 0 0,0 20,15.5M17,3H15V10H17V3Z" /></svg>
